material/.icons/material/priority-low.svg

<svg xmlns="http://www.w3.org/2000/svg" viewBox="0 0 24 24"><path d="M14 5h8v2h-8V5m0 5.5h8v2h-8v-2m0 5.5h8v2h-8v-2M2 11.5C2 15.08 4.92 18 8.5 18H9v2l3-3-3-3v2h-.5C6 16 4 14 4 11.5S6 7 8.5 7H12V5H8.5C4.92 5 2 7.92 2 11.5z"/></svg>

<?xml version="1.0" encoding="UTF-8"?><!DOCTYPE svg PUBLIC "-//W3C//DTD SVG 1.1//EN" "http://www.w3.org/Graphics/SVG/1.1/DTD/svg11.dtd"><svg xmlns="http://www.w3.org/2000/svg" xmlns:xlink="http://www.w3.org/1999/xlink" version="1.1" id="mdi-priority-low" width="24" height="24" viewBox="0 0 24 24"><path d="M14,5H22V7H14V5M14,10.5H22V12.5H14V10.5M14,16H22V18H14V16M2,11.5C2,15.08 4.92,18 8.5,18H9V20L12,17L9,14V16H8.5C6,16 4,14 4,11.5C4,9 6,7 8.5,7H12V5H8.5C4.92,5 2,7.92 2,11.5Z" /></svg>
